resources/haticons/SVG/format_align_left.svg

<!-- Generated by IcoMoon.io -->
<svg version="1.1" xmlns="http://www.w3.org/2000/svg" width="24" height="24" viewBox="0 0 24 24">
<title>format_align_left</title>
<path d="M3 3h18v2.016h-18v-2.016zM3 21v-2.016h18v2.016h-18zM3 12.984v-1.969h18v1.969h-18zM15 6.984v2.016h-12v-2.016h12zM15 15v2.016h-12v-2.016h12z"></path>
</svg>

<svg xmlns="http://www.w3.org/2000/svg" width="24" height="24"><path d="M3 3h18v2.016H3V3zm0 18v-2.016h18V21H3zm0-8.016v-1.969h18v1.969H3zm12-6V9H3V6.984h12zM15 15v2.016H3V15h12z"/></svg>
